X:1
T:Wissahickon Drive
R:reel
M:4/4
L:1/8
K:A
|:EFAB cBAB|ceef ecBA|F2dF eFde|fedf ecBA|
|EFAB cBAB|ceef ecBA|f2af ~e2cA|1 BAGB A2AF:|2 BAGB ABce|]
|:a2ga baga|fd~d2 fgaf|ec~c2 acec|fcec BAce|
|a2ga baga|fd~d2 fgaf|ec~c2 acec|1 BABc ABce:|2 BABc A2AF|]